.icons/oomox-ad/48x48/apps/com.yuenhoe.filedrawer.svg

<svg xmlns="http://www.w3.org/2000/svg" width="48" height="48" version="1">
 <rect style="opacity:0.2" width="40" height="26" x="4" y="17" rx="2" ry="2"/>
 <path style="fill:#4877b1" d="M 4,34 C 4,35.108 4.892,36 6,36 H 42 C 43.108,36 44,35.108 44,34 V 12 C 44,10.892 43.108,10 42,10 H 22 V 8 C 22,6.892 21.108,6 20,6 H 6 C 4.892,6 4,6.892 4,8"/>
 <rect style="opacity:0.2" width="40" height="26" x="4" y="15" rx="2" ry="2"/>
 <rect style="fill:#e4e4e4" width="36" height="16" x="6" y="13" rx="2" ry="2"/>
 <rect style="fill:#5294e2" width="40" height="26" x="4" y="16" rx="2" ry="2"/>
 <path style="opacity:0.1;fill:#ffffff" d="M 6,6 C 4.892,6 4,6.892 4,8 V 9 C 4,7.892 4.892,7 6,7 H 20 C 21.108,7 22,7.892 22,9 V 8 C 22,6.892 21.108,6 20,6 Z M 22,10 V 11 H 42 C 43.108,11 44,11.892 44,13 V 12 C 44,10.892 43.108,10 42,10 Z"/>
 <circle style="opacity:0.2" cx="36" cy="36" r="11"/>
 <circle style="fill:#28ccb2" cx="36" cy="35" r="11"/>
 <path style="fill:#ffffff;fill-rule:evenodd" d="m 36,30 c -1.5508,0.0151 -3.1121,0.36944 -4.4629,1.135 -0.53841,0.3507 -1.1848,0.80366 -1.6719,1.26 -0.76649,0.75058 -1.4225,1.6263 -1.8652,2.606 1.2149,2.6801 3.8859,4.6445 6.8242,4.9346 1.9274,0.21817 3.9444,-0.11487 5.6387,-1.0686 0.53839,-0.3507 1.1848,-0.80366 1.6719,-1.26 0.766,-0.751 1.422,-1.626 1.865,-2.606 -1.215,-2.68 -3.886,-4.645 -6.824,-4.935 C 36.7858,30.021 36.3928,30 35.9998,30 Z m 0,2.0004 c 1.607,-0.0356 3.0303,1.4021 3,3.0007 0.05149,1.7668 -1.709,3.2916 -3.4492,2.9616 -1.7576,-0.20637 -2.9921,-2.1782 -2.4141,-3.8485 0.36917,-1.2296 1.5758,-2.129 2.8633,-2.1138 z m 0,2.0004 a 1,1.0002 0 0 0 -1,1.0002 1,1.0002 0 0 0 1,1.0002 1,1.0002 0 0 0 0.99999,-1.0002 1,1.0002 0 0 0 -1,-0.999 z"/>
</svg>

<svg xmlns="http://www.w3.org/2000/svg" width="48" height="48" version="1">
 <rect style="opacity:0.2" width="40" height="26" x="4" y="17" rx="2" ry="2"/>
 <path style="fill:#4877b1" d="M 4,34 C 4,35.108 4.892,36 6,36 H 42 C 43.108,36 44,35.108 44,34 V 12 C 44,10.892 43.108,10 42,10 H 24 C 21,10 20,6 17,6 H 6 C 4.892,6 4,6.892 4,8"/>
 <rect style="opacity:0.2" width="40" height="26" x="4" y="15" rx="2" ry="2"/>
 <rect style="fill:#e4e4e4" width="36" height="16" x="6" y="13" rx="2" ry="2"/>
 <rect style="fill:#5294e2" width="40" height="26" x="4" y="16" rx="2" ry="2"/>
 <path style="opacity:0.1;fill:#ffffff" d="M 6,6 C 4.892,6 4,6.892 4,8 V 9 C 4,7.892 4.892,7 6,7 H 17 C 20,7 21,11 24,11 H 42 C 43.108,11 44,11.892 44,13 V 12 C 44,10.892 43.108,10 42,10 H 24 C 21,10 20,6 17,6 Z"/>
 <circle style="opacity:0.2" cx="36" cy="36" r="11"/>
 <circle style="fill:#28ccb2" cx="36" cy="35" r="11"/>
 <path style="fill:#ffffff;fill-rule:evenodd" d="M 36,30 C 34.4492,30.0151 32.8879,30.36944 31.5371,31.135 30.99869,31.4857 30.3523,31.93866 29.8652,32.395 29.09871,33.14558 28.4427,34.0213 28,35.001 29.2149,37.6811 31.8859,39.6455 34.8242,39.9356 36.7516,40.15377 38.7686,39.82073 40.4629,38.867 41.00129,38.5163 41.6477,38.06334 42.1348,37.607 42.9008,36.856 43.5568,35.981 43.9998,35.001 42.7848,32.321 40.1138,30.356 37.1758,30.066 36.7858,30.021 36.3928,30 35.9998,30 Z M 36,32.0004 C 37.607,31.9648 39.0303,33.4025 39,35.0011 39.05149,36.7679 37.291,38.2927 35.5508,37.9627 33.7932,37.75633 32.5587,35.7845 33.1367,34.1142 33.50587,32.8846 34.7125,31.9852 36,32.0004 Z M 36,34.0008 A 1,1.0002 0 0 0 35,35.001 1,1.0002 0 0 0 36,36.0012 1,1.0002 0 0 0 36.99999,35.001 1,1.0002 0 0 0 35.99999,34.002 Z"/>
</svg>
